X: 21292
M: 6/8
L: 1/8
K: D
V: 1 name="5"
fge d2A | d2e fef | gfg eba | gfe d2 H|]
dcd BGB | BdB AFA | A>dA G2F | EFD ABc |\
dcd BGB | BdB AFA | BdB GAF | EFD "^D.C."d2 |]


